images/Vector.svg

<svg width="8" height="14" viewBox="0 0 8 14" fill="none" xmlns="http://www.w3.org/2000/svg">
<path d="M6.08001 2.54661H7.33334V0.426605C6.72651 0.363503 6.11678 0.332349 5.50668 0.333272C3.69334 0.333272 2.45334 1.43994 2.45334 3.46661V5.21327H0.406677V7.58661H2.45334V13.6666H4.90668V7.58661H6.94668L7.25334 5.21327H4.90668V3.69994C4.90668 2.99994 5.09335 2.54661 6.08001 2.54661Z" fill="#0082C6"/>
</svg>

<svg width="8" height="14" fill="none" xmlns="http://www.w3.org/2000/svg"><path d="M6.08 2.547h1.253V.427A17.406 17.406 0 005.507.333c-1.814 0-3.054 1.107-3.054 3.134v1.746H.407v2.374h2.046v6.08h2.454v-6.08h2.04l.306-2.374H4.907V3.7c0-.7.186-1.153 1.173-1.153z" fill="#0082C6"/></svg>
